X:1
T:Title
L:1/8
M:3/8
K:Eb
V:1 treble nm="Grand Piano"
V:1
 z z[Q:1/4=100] C | G2 _G | G2 E | F2 =E | F2 D | E2 D | E2 C | D3- | D2 D | F2 =E | F2 D | E2 F | %12
 G2 A | B2 A | G3- | G2 C | G2 _G | G2 E | F2 =E | F2 D | E2 D | E2 C | D3- | D2 D | F2 =E | F2 D | %26
 E2 F | G2 A | B2 A | G3- | G2 G | c2 =B | c2 G | B2 =A | B2 F | A2 G | A2 E | G3 | G2 G | c2 =B | %40
 c2 G | B2 =A | B2 F | A2 G | A2 E | G3 | G3 | A2 F | D2 =B, | D3 | C3- | C2 z |] %52

